svgs/sharp-light/butter.svg

<svg xmlns="http://www.w3.org/2000/svg" viewBox="0 0 640 512"><!--! Font Awesome Pro 6.6.0 by @fontawesome - https://fontawesome.com License - https://fontawesome.com/license (Commercial License) Copyright 2024 Fonticons, Inc. --><path d="M480 96l0 192-32 0 0-192L96 96l0 192-32 0L64 96l0-32 32 0 352 0 16 0 16 0 64 0 32 0 0 32 0 192-32 0 0-192-64 0zM0 320l16 0 16 0 32 0 512 0 32 0 16 0 16 0 0 32-16 0-16 0 0 64 0 32-32 0L64 448l-32 0 0-32 0-64-16 0L0 352l0-32zm64 32l0 64 512 0 0-64L64 352z"/></svg>

<svg xmlns="http://www.w3.org/2000/svg" viewBox="0 0 640 512"><!--! Font Awesome Pro 6.4.2 by @fontawesome - https://fontawesome.com License - https://fontawesome.com/license (Commercial License) Copyright 2023 Fonticons, Inc. --><path d="M480 96V288H448V96H96V288H64V96 64H96 448h16 16 64 32V96 288H544V96H480zM0 320H16 32 64 576h32 16 16v32H624 608v64 32H576 64 32V416 352H16 0V320zm64 32v64H576V352H64z"/></svg>
